archdroid-icon-theme/Archdroid-Amber/apps/scalable/cmake.svg

<?xml version="1.0" encoding="UTF-8" standalone="no"?>
<!-- Created with Inkscape (http://www.inkscape.org/) -->

<svg
   xmlns:dc="http://purl.org/dc/elements/1.1/"
   xmlns:cc="http://creativecommons.org/ns#"
   xmlns:rdf="http://www.w3.org/1999/02/22-rdf-syntax-ns#"
   xmlns:svg="http://www.w3.org/2000/svg"
   xmlns="http://www.w3.org/2000/svg"
   xmlns:sodipodi="http://sodipodi.sourceforge.net/DTD/sodipodi-0.dtd"
   xmlns:inkscape="http://www.inkscape.org/namespaces/inkscape"
   inkscape:export-ydpi="100"
   inkscape:export-xdpi="100"
   inkscape:export-filename="/home/alecive/Scrivania/firefoxTest1.png"
   sodipodi:docname="cmake.svg"
   inkscape:version="0.91 r13725"
   version="1.1"
   id="svg2"
   height="48"
   width="48">
  <sodipodi:namedview
     id="base"
     pagecolor="#ffffff"
     bordercolor="#666666"
     borderopacity="1.0"
     inkscape:pageopacity="0.0"
     inkscape:pageshadow="2"
     inkscape:zoom="3.079904937938629"
     inkscape:cx="25.80241911966252"
     inkscape:cy="4.726860842830519"
     inkscape:document-units="px"
     inkscape:current-layer="svg2"
     showgrid="false"
     inkscape:window-width="681"
     inkscape:window-height="712"
     inkscape:window-x="462"
     inkscape:window-y="31"
     inkscape:window-maximized="0"
     inkscape:object-paths="false"
     inkscape:snap-intersection-paths="false"
     inkscape:object-nodes="true"
     inkscape:snap-smooth-nodes="true"
     inkscape:snap-nodes="true"
     inkscape:snap-bbox="true"
     inkscape:bbox-nodes="true"
     inkscape:snap-page="true" />
  <defs
     id="defs4" />
  <metadata
     id="metadata7">
    <rdf:RDF>
      <cc:Work
         rdf:about="">
        <dc:format>image/svg+xml</dc:format>
        <dc:type
           rdf:resource="http://purl.org/dc/dcmitype/StillImage" />
        <dc:title></dc:title>
      </cc:Work>
    </rdf:RDF>
  </metadata>
  <path
     style="opacity:1;fill:#cccccc;fill-opacity:1;fill-rule:nonzero;stroke:none;stroke-width:2;stroke-miterlimit:4;stroke-dasharray:none;stroke-opacity:1"
     d="M 23.9932217744116,6.059272834841793 25.63489367165402,25.21101671882219 17.6975261879163,31.9966095357651 26.5398427223422,35.63634887289841 23.9932217744116,6.059272834841824 Z"
     id="path4245"
     inkscape:connector-curvature="0" />
  <g
     id="layer1"
     inkscape:groupmode="layer"
     inkscape:label="Livello 1"
     transform="translate(0,-1004.36218)" />
  <g
     id="g2036"
     transform="matrix(1.1,0,0,0.44444,95.081063,-207.60746)">
    <g
       id="g3712"
       style="opacity:0.4"
       transform="matrix(1.0526,0,0,1.2857,-1.2632,-13.429)" />
  </g>
  <g
     transform="translate(97.481063,-232.7184600000001)"
     id="g3541" />
  <g
     transform="translate(97.481063,-232.7184600000001)"
     id="g3536" />
  <g
     id="g4076"
     transform="translate(-605.5193199999996,-817.9683299999999)">
    <g
       transform="translate(-926.66758,684.38448)"
       id="g4038" />
  </g>
  <path
     inkscape:connector-curvature="0"
     style="fill:#cc0000;fill-opacity:1;fill-rule:nonzero;stroke:none;stroke-width:0.2999999821;stroke-miterlimit:4;stroke-dasharray:none;stroke-opacity:1"
     d="M 26.54484440413512,35.6937899801188 23.99315510334031,6.059343259914881 42.00000000000011,42 26.54484440413511,35.6937899801188 Z"
     sodipodi:nodetypes="cccc"
     id="path4193" />
  <path
     inkscape:connector-curvature="0"
     style="fill:#0000cc;fill-opacity:1;fill-rule:nonzero;stroke:none"
     d="M 25.63494525163832,25.21098931460928 5.999999999999992,41.9967229066184 23.99315510334019,6.059343259914881 Z"
     sodipodi:nodetypes="cccc"
     id="path4195" />
  <path
     inkscape:connector-curvature="0"
     style="fill:#00cc00;fill-opacity:1;fill-rule:nonzero;stroke:none;stroke-opacity:1"
     d="M 17.66027665491412,31.98146183831961 42,42 5.999999999999984,41.99674212711 17.66027665491411,31.98147625368891 Z"
     sodipodi:nodetypes="ccccc"
     id="path4197" />
</svg>

<svg xmlns="http://www.w3.org/2000/svg" viewBox="0 0 48 48"><path d="m23.993 6.06l1.642 19.15-7.937 6.786 8.842 3.64-2.547-29.577" fill="#ccc"/><path d="m26.545 35.694l-2.552-29.634 18.01 35.941-15.455-6.306" fill="#c00"/><path d="m25.635 25.21l-19.635 16.786 17.993-35.937" fill="#00c"/><path d="m17.66 31.981l24.34 10.02-36-.003 11.66-10.02" fill="#0c0"/></svg>
